X: 20484
T: John Kelly's
R: reel
M: 4/4
K: Gmajor
|:G3G GABG|AGEF GABc|dz gd edBc|d2ed {d}BAAB|
G3G GABG|AGEF GABc|dz gd edBG|1 A2 G2 GEDE:|2 A2 G2 GABd||
|:e3e edBc|d3d dBAB|c2cd B2AG|EAAG AcBA|
G3G GABG|AGEF GABc|dz gd edBG|1 A2 G2 GABd:|2 A2 G2 GEDE||

